symbolic/64x64/apps/dmd-doc.svg

<svg xmlns="http://www.w3.org/2000/svg" width="64" height="64" version="1">
 <rect style="opacity:0.2" width="46" height="56" x="-56" y="-60" rx="2.875" ry="2.8" transform="matrix(0,-1,-1,0,0,0)"/>
 <rect style="fill:#c52f2f" width="46" height="56" x="-55" y="-60" rx="2.875" ry="2.8" transform="matrix(0,-1,-1,0,0,0)"/>
 <circle style="opacity:0.2" cx="51" cy="21" r="3"/>
 <path style="opacity:0.2" d="m 4,35 0,17.124998 c 0,1.59275 1.2488,2.875 2.8,2.875 l 50.4,0 c 1.5512,0 2.8,-1.28225 2.8,-2.875 l 0,-7.56653 C 42.82025,38.32121 17.947917,35.104356 4,35 Z"/>
 <path style="opacity:0.2" d="m 48.007974,28 c 0,4.418276 -3.646844,8 -8.145454,8 -1.161054,0 -2.26537,-0.238584 -3.2649,-0.668556 -2.873232,-1.235994 -1.3327,-3.438576 -1.3327,-6.716532 0,-1.535194 -3.107568,-3.584298 -2.344244,-4.802336 C 34.354196,21.52511 36.927014,20 39.86252,20 c 4.49861,0 8.145454,3.581724 8.145454,8 z"/>
 <path style="fill:#ff783e" d="m 48.007974,27 c 0,4.418276 -3.646844,8 -8.145454,8 -1.161054,0 -2.26537,-0.238584 -3.2649,-0.668556 -2.873232,-1.235994 -1.3327,-3.438576 -1.3327,-6.716532 0,-1.535194 -3.107568,-3.584298 -2.344244,-4.802336 C 34.354196,20.52511 36.927014,19 39.86252,19 c 4.49861,0 8.145454,3.581724 8.145454,8 z"/>
 <circle style="fill:#ffba46" cx="51" cy="20" r="3"/>
 <path style="opacity:0.2" d="M 11.363636,18.000006 C 10.608182,18.000006 10,18.608188 10,19.363642 l 0,27.272722 C 10,47.391818 10.608182,48 11.363636,48 l 2.338424,0 0.388849,0 11.297939,0 c 0.0302,0 0.05576,-0.02024 0.08522,-0.02398 C 33.563338,47.72024 39.991104,41.09331 40,33.000004 39.994928,24.892572 33.548652,18.256387 25.44478,18.015987 25.42518,18.014365 25.4087,18 25.38884,18 l -11.297939,0 -0.388849,0 z M 17,25 24.599274,25 C 30,25 33.000002,27.728196 33,33.000004 33,38.271812 30,41 24.599274,41 L 17,41 Z"/>
 <path style="fill:#ffffff" d="M 11.363636,17.000006 C 10.608182,17.000006 10,17.608188 10,18.363642 l 0,27.272722 C 10,46.391818 10.608182,47 11.363636,47 l 2.338424,0 0.388849,0 11.297939,0 c 0.0302,0 0.05576,-0.02024 0.08522,-0.02398 C 33.563338,46.72024 39.991104,40.09331 40,32.000004 39.994928,23.892572 33.548652,17.256387 25.44478,17.015987 25.42518,17.014365 25.4087,17 25.38884,17 l -11.297939,0 -0.388849,0 z M 17,24 24.599274,24 C 30,24 33.000002,26.728196 33,32.000004 33,37.271812 30,40 24.599274,40 L 17,40 Z"/>
 <path style="opacity:0.2;fill:#ffffff" d="M 6.8007812 9 C 5.2495812 9 4 10.28225 4 11.875 L 4 12.875 C 4 11.28225 5.2495812 10 6.8007812 10 L 57.199219 10 C 58.750419 10 60 11.28225 60 12.875 L 60 11.875 C 60 10.28225 58.750419 9 57.199219 9 L 6.8007812 9 z"/>
</svg>

<svg xmlns="http://www.w3.org/2000/svg" width="64" height="64" version="1"><rect style="opacity:.2" width="46" height="56" x="-56" y="-60" rx="2.875" ry="2.8" transform="matrix(0 -1 -1 0 0 0)"/><rect style="fill:#c52f2f" width="46" height="56" x="-55" y="-60" rx="2.875" ry="2.8" transform="matrix(0 -1 -1 0 0 0)"/><circle style="opacity:.2" cx="51" cy="21" r="3"/><path style="opacity:.2" d="M4 35v17.125C4 53.718 5.249 55 6.8 55h50.4c1.551 0 2.8-1.282 2.8-2.875v-7.567C42.82 38.321 17.948 35.104 4 35zM48.008 28c0 4.418-3.647 8-8.145 8a8.244 8.244 0 0 1-3.265-.669c-2.874-1.236-1.333-3.438-1.333-6.716 0-1.535-3.108-3.584-2.344-4.802A8.173 8.173 0 0 1 39.863 20c4.498 0 8.145 3.582 8.145 8z"/><path style="fill:#ff783e" d="M48.008 27c0 4.418-3.647 8-8.145 8a8.244 8.244 0 0 1-3.265-.669c-2.874-1.236-1.333-3.438-1.333-6.716 0-1.535-3.108-3.584-2.344-4.802A8.173 8.173 0 0 1 39.863 19c4.498 0 8.145 3.582 8.145 8z"/><circle style="fill:#ffba46" cx="51" cy="20" r="3"/><path style="opacity:.2" d="M11.364 18A1.36 1.36 0 0 0 10 19.364v27.272A1.36 1.36 0 0 0 11.364 48h14.025c.03 0 .056-.02.085-.024C33.564 47.72 39.991 41.093 40 33c-.005-8.107-6.451-14.744-14.555-14.984-.02-.002-.036-.016-.056-.016H13.702zM17 25h7.6c5.4 0 8.4 2.728 8.4 8s-3 8-8.4 8H17z"/><path style="fill:#fff" d="M11.364 17A1.36 1.36 0 0 0 10 18.364v27.272A1.36 1.36 0 0 0 11.364 47h14.025c.03 0 .056-.02.085-.024C33.564 46.72 39.991 40.093 40 32c-.005-8.107-6.451-14.744-14.555-14.984-.02-.002-.036-.016-.056-.016H13.702zM17 24h7.6c5.4 0 8.4 2.728 8.4 8s-3 8-8.4 8H17z"/><path style="opacity:.2;fill:#fff" d="M6.8 9C5.25 9 4 10.282 4 11.875v1C4 11.282 5.25 10 6.8 10h50.4c1.55 0 2.8 1.282 2.8 2.875v-1C60 10.282 58.75 9 57.2 9H6.8z"/></svg>
